!!!COM:      Bach, Johann Sebastian
!!!CDT:      1685/03/31/-1750/07/28/
!!!OPR@@GER: Das wohltemperirte Clavier
!!!OVM@@GER: Band II
!!!OPR@ENG:  Well-Tempered Clavier
!!!OVM@ENG:  Book II
!!!OTL:      Prelude
!!!OKY:      D-sharp minor
!!!ONM:      no. 8
!!!SCT:      BWV 877
!!!OMV:      1
**kern	**kern
*>[A,A,B,B]	*>[A,A,B,B]
*>norep[A,B]	*>norep[A,B]
*>A	*>A
*clefF4	*clefG2
*k[f#c#g#d#a#e#]	*k[f#c#g#d#a#e#]
*d#:	*d#:
*M4/4	*M4/4
*met(c)	*met(c)
*MM76	*MM76
=1-	=1-
4D#M	16d#
.	16f#
.	16e#
.	16g#
4DD#	16f#
.	16a#
.	16g#
.	16b
2r	16a#
.	16dd#
.	16cc##
.	16b#
.	16a#
.	16g#
.	16f#
.	16e#
=2	=2
16D#	8f#
16F#	.
16E#	8c##
16G#	.
16F#	8d#
16A#	.
16G#	8dd#
16B	.
16A#	16cc##Xw
16d#	16b#
16c##	8a#
16B#	.
16A#	8r
16G#	.
16F#	8cc##XS
16E#	.
=3	=3
8F#	16dd#
.	16ff#
8C##	16ee#
.	16gg#
8D#	16ff#
.	16ee#
8F#	16dd#
.	16cc#X
16G#	8b
16B	.
16A#	8dd#
16c#	.
16B	[4gg#M
16A#	.
16G#	.
16F#	.
=4	=4
8E#	16gg#]
.	16ee#
8G#	16ff#
.	16dd#
[4c#M	16ee#
.	16gg#
.	16cc#
.	16b
16c#]	8a#
16A#	.
16B	8cc#
16G#	.
16A#	[4ff#M
16c#	.
16F#	.
16E#	.
=5	=5
8D#	16ff#]
.	16ee#
8F#	16dd#
.	16cc##
4BM	16dd#
.	16ff#
.	16g#
.	16ff#
8C#	16ee#
.	16dd#
8E#	16cc#X
.	16b#
4A#m	16cc#
.	16een
.	16f#
.	16ee
=6	=6
8BB	16dd#
.	16cc#
8D#	16b
.	16a#
8G#	16b
.	16dd#
8C#	16e#X
.	16dd#
8D#	16b
.	16dd#
8B	16f#
.	16dd#
8G#	16b
.	16dd#
8E#	16g#
.	16dd#
=7	=7
8AA#	16cc#
.	16b
8C#	16a#
.	16g#
8F#	16a#
.	16cc#
8BB	16d#
.	16cc#
8C#	16a#
.	16cc#
8A#	16e#
.	16cc#
8F#	16a#
.	16cc#
8D#	16f#
.	16cc#
=8	=8
8GG#	16b
.	16a#
8BB	16g#
.	16f#
8E#	16g#
.	16b
8AA#	16c#
.	16b
8BB	16g#
.	16b
8G#	16d#
.	16b
8E#	16g#
.	16b
8C#	16e#
.	16b
=9	=9
16FF#	16a#
16AA#	16f#
16GG#	16e#
16BB	16dd#
16AA#	16cc#
16C#	16a#
16BB	16g#
16D#	16ff#
16C#	16ee#w
16F#	16dd#
16E#	8cc#
16D#	.
16C#	4r
16BB	.
16AA#	.
16GG#	.
=10	=10
8AA#	16f#
.	16a#
8C#	16g#
.	16b
8F#	16a#
.	16cc#
8G#	16b
.	16dd#
8A#	16cc#
.	16ff#
8B	16ee#
.	16dd#
8c#	16cc#
.	16b
8C#	16a#
.	16g#
=11	=11
8F#	16a#
.	16cc#
8D#	16b#
.	16dd#
8E#	16cc#
.	16ee#
8BB#	16dd#
.	16ff#
8C#	16ee#
.	16aa#
8D#	16gg##
.	16ff##
8E#	16ee#
.	16dd#
8EE#	16cc#
.	16b#X
=12	=12
16AA#	8cc#
16C#	.
16BB#	8g##
16D#	.
16C#	8a#
16E#	.
16D#	8ff#
16F#	.
16E#	32g##X
.	32f##
16A#	16e#
16G##	8dd#
16F##	.
16E#	16r
16D#	16g##X
16C#	16a#
16BB#X	16b#
=13	=13
16C#	16e#
16E#	16cc#
16D#	16b#
16F#	16dd#
16E#	16cc#
16D#	16b#
16C#	16a#
16BB#	16g##
16AA#	16cc#
16C#	16a#
16BB#X	16g##X
16D#	16b#X
16C#	16a#
16BB#	16g#X
16AA#	16f#
16GG#	16e#
=14	=14
16FF##	16d#
16AA#	16cc#
16GG##	16b#
16BB#	16dd#
16AA#	16cc#
16GG#X	16b#
16FF#X	16a#
16EE#	16g##
8DD##	16ff##
.	16cc#
8D##X	16g##X
.	16a#
16r	8.gg##Xt
16F#X	.
16E#	.
16D#X	32ff##X
.	32gg##
=15	=15
16C#	16aa#
16BB#	32gg#X
.	32ff#X
16C#	16ee#
16D#	16dd#
16E#	16cc#
16F#	16aa#
16D#	16b#
16E#	16gg##
8F#	16aa#
.	16a#
8FF#	32dd#
.	32cc#
.	16b#X
8EE#	16cc#
.	32b#
.	32a#
8DD#	32g##X
.	32a#
.	16b#
=16	=16
8CC#	32e#
.	32a#
.	32g#X
.	32f#
16C#	16e#
16D#	16d#
8E#	16c#
.	32B#
.	32c#
8EE#	32d#
.	32c#
.	16B#
2AA#	16A#
.	16c#
.	16e#
.	16g##
.	8g##
.	8a#
=17:||:	=17:||:
*>B	*>B
16AA#	16gg#
16C##	32ee#
.	32cc##
16BB#	[8a#
16D#	.
16C##X	16a#]
16E#	32cc##X
.	32ee#
16D#	32ff#
.	32ee#
16F#	16dd#
16E#	16cc##X
16G#	32ee#
.	32gg#
16F#	[8bb
16E#	.
16D#	16bb]
16C##X	32ee#
.	32dd#
16BB#X	32ee#
.	32ff#
16AA#	16gg#
=18	=18
8D#	16ff#
.	16ee#
8F#	16dd#
.	16cc##
8B#	16dd#
.	16ff#
8E#	16g#
.	16ff#
8F#	16dd#
.	16ff#
8d#	16a#
.	16ff#
8B#X	16dd#
.	16ff#
8G#	16b#
.	16ff#
=19	=19
16Bn	16cc#
32G#	16ee#
32E#	.
[8C#	16dd#
.	16ff#
16C#]	16ee#
32E#	16gg#
32G#	.
32A#	16ff#
32G#	.
16F#	16aa#
16E#	16gg#
32G#	16bb
32B	.
[8d#	16aa#
.	16gg#
16d#]	16ff#
32G#	16ee#
32F#	.
32G#	16dd#
32A#	.
16B	16cc#
=20	=20
16A#	16ff#
16G#	16b
16F#	16a#
16E#	16g#
16F#	16a#
16A#	8een
16BB	.
16A#	16dd#
16F#	16cc#
16A#	8ff#
16C#	.
16A#	16een
16F#	16dd#
16A#	16ff#
16D#	16bb
16A#	16ff##
=21	=21
16En	16gg#
16G#	16een
16F#	16dd#
16An	16ff#
16G#	16een
16F#	16dd#
16En	16cc#
16D#	16b#
8C#	16een
.	16cc#
8En	16bn
.	16dd#
[4A#	16cc#
.	16b
.	16a#
.	16g#
=22	=22
16A#]	8f##
16F##	.
16G#	8a#
16E#X	.
16F##X	[4dd#
16A#	.
16D#	.
16C#	.
8BB	16dd#]
.	16b
8D#	16cc#
.	16a#
[4G#	16b
.	16dd#
.	16g#
.	16f#X
=23	=23
16G#]	8en
16F#	.
16En	8g#
16D#	.
16E	[4cc#
16G#	.
16C#	.
16BB	.
16AA#	16cc#]
16G#	16en
16F##	16d#
16E#	16c##
16F##	8d#
16A#	.
16D#	8a#
16C#	.
=24	=24
8BB	16dd#
.	32cc#
.	32b
8En	32a#
.	32b
.	16cc#
8C#	16b
.	16gg#
8D#	16a#
.	16ff##
8GG#	16gg#
.	16een
8AA#	16dd#
.	16cc#
8BB	16dd#
.	16g#
8AA#	16f##X
.	16cc#
=25	=25
8GG#	16b
.	16a#
8BB	16g#
.	16f##
8E#	16g#
.	16b
8AA#	16c#
.	16b
8BB	16g#
.	16b
8G#	16d#
.	16b
8E#	16g#
.	16b
8C#	16e#
.	16b
=26	=26
8FF#	16a#
.	16g#
8AA#	16f#
.	16e#
8D#	16f#
.	16a#
8GG#	16B#
.	16a#
8AA#	16f#
.	16a#
8F#	16c##
.	16a#
8D#	16f#
.	16a#
8BB	16d#
.	16a#
=27	=27
8EE#	16g#
.	16f#
8GG#	16e#
.	16d#
8C##	16e#
.	16g#
8FF#	16A#
.	16g#
8GG#	16e#
.	16g#
8E#	16B#
.	16g#
8C##X	16e#
.	16g#
8AA#	16c##
.	16g#
=28	=28
16DD#	16f#
16FF#	16a#
16EE#	16cc##
16GG#	16ee#
16FF#	16a#
16AA#	16cc##X
16GG#	16ee#
16BB	16gg#
16AA#	32ff#
.	32ee#
16D#	16dd#
16C##	8ee#
16BB#	.
16AA#	4r
16GG#	.
16FF#	.
16EE#	.
=29	=29
16FF#	16d#
16AA#	16f#
16C##	16e#
16E#	16g#
16AA#	16f#
16C##X	16a#
16E#	16g#
16G#	16b
32F#	16a#
32E#	.
16D#	16dd#
8E#	16cc##
.	16b#
8r	16a#
.	16g#
8A#	16f#
.	16e#
=30	=30
8D#	16f#
.	16a#
8B	16g#
.	16b
8C#	16a#
.	16g#
8A#	16f#
.	16e#
8BB	16d#
.	16f#
8G#	16e#
.	16g#
8AA#	16f#
.	16e#
8A#	16d#
.	16c##
=31	=31
16B	16d#
16G#	16g#
16A#	16f##
16c#	16a#
16B	16g#
16A#	16f#X
16G#	16e#
16B	16d#
16A#	16c##
16E#	16e#
16F#	16d#
16A#	16f#
16G#	16e#
16F#	16d#
16E#	16c##X
16G#	16B#
=32	=32
16F#	8A#
16C##	.
16D#	8a#
16F#	.
8A#	16g#
.	16f#
8AA#	16e#
.	16f#
16c#	16d#
32A#	16f##
32F##	.
[8D#	16e#
.	16g#
16D#]	16f##X
32F##X	16a#
32A#	.
32B	16g#
32A#	.
16G#	16b
=33	=33
16F##	16a#
32A#	16cc#
32c#	.
[8en	16b
.	16a#
16e]	16g#
32A#	16f##
32G#	.
32A#	16e#X
32B	.
16c#	16d#
16E#	16dd#
16G##	32b#
.	32g##
16F##X	[8e#
16A#	.
16G##X	16e#]
16B#	32g##X
.	32b#X
16A#	32cc#
.	32b#
16c#	16a#
=34	=34
16B#	16g##
16d#	32b#
.	32dd#
16c#	[8ff#
16B#	.
16A#	16ff#]
16G##	32b#X
.	32a#
16F##	32b#
.	32cc##
16E#	16dd#
16G#X	16cc##X
32E#	16ee#
32C##	.
[8AA#	16dd#
.	16ff#
16AA#]	16ee#
32C##X	16gg#
32E#	.
[8A#	16ff#
.	16aa#
=35	=35
16A#]	16gg#
32G#	16bb
32E#	.
16C##	16aa#
16B	16gg#
16A#	16ff#
32G#	16ee#
32F#	.
32E#	16dd#
32F#	.
16G#	16cc##
8F#	16dd#
.	32ee#
.	32ff#
8BB	32gg#
.	32ff#
.	16ee#
8AA#	16ff#
.	32ee#
.	32dd#
8GG#	32cc##X
.	32dd#
.	16ee#
=36	=36
8FF#	32a#
.	32dd#
.	32cc#X
.	32b
16F#	16a#
16G#	16g#
8A#	16f#
.	32e#
.	32f#
8AA#	32g#
.	32f#
.	16e#
2DD#	16d#
.	16f#
.	16a#
.	16cc##
.	8cc##
.	8dd#
==:|	==:|
*-	*-
!!!AFR:  prelude
!!!EFL:  63/96
!!!END:  1994/02/04/
!!!VID:  3036112576 Bach, BWV 877-01
!!!AST:  Baroque
!!!OCY:  Deutschland
!!!ODT:  1742///
!!!PDT:  1801///
!!!EED:  Walter Hewlett
!!!ENC:  Walter Hewlett
!!!YOR:  Bach Gesellschaft Edition xiv
!!!AFT:  enhanced SCORE
!!!RDT:  2011/10/07/ by Andreas Kornstaedt using massScr2hmd
!!!SCA1: Thematisch-systematisches Verzeichnis der musikalischen Werke 
!!!SCA2: Johann Sebastian Bach: Bach-Werke-Verzeichnis (Schmieder)
!!!YEC1: Copyright 1994, 2000 Center for Computer Assisted Research 
!!!YEC2: in the Humanities
!!!YEM1: Rights to all derivative editions reserved.
!!!YEM2: Refer to licensing agreement for further details.
!!!YEN:  United States of America
!!!ref:  @{OTL}, @{SCT}
!!muse2ps: T^@{OTL} @{ONM} in @{OKY}^C^J.S. Bach\n@{SCT}-@{OMV}^
!!muse2ps: u^@{OPR@ENG}, @{OVM@ENG}^j
